
// NOTE: Shader automatically converted from Godot Engine 4.6.stable's ProceduralSkyMaterial.

shader_type sky;
render_mode use_debanding;

uniform vec4 sky_top_color : source_color = vec4(0.385, 0.454, 0.55, 1.0);
uniform vec4 sky_horizon_color : source_color = vec4(0.646, 0.656, 0.67, 1.0);
uniform float inv_sky_curve : hint_range(1, 100) = 4.0;
uniform vec4 ground_bottom_color : source_color = vec4(0.2, 0.169, 0.133, 1.0);
uniform vec4 ground_horizon_color : source_color = vec4(0.646, 0.656, 0.67, 1.0);
uniform float inv_ground_curve : hint_range(1, 100) = 30.0;
uniform float sun_angle_max = 0.877;
uniform float inv_sun_curve : hint_range(1, 100) = 22.78;
uniform float exposure : hint_range(0, 128) = 1.0;

uniform sampler2D sky_cover : filter_linear, source_color, hint_default_black;
uniform vec4 sky_cover_modulate : source_color = vec4(1.0, 1.0, 1.0, 1.0);

uniform sampler2D cloud_texture;
uniform sampler2D cloud_texture2;
uniform vec2 cloud_direction;
uniform vec2 cloud_direction2;
uniform vec2 cloud_scale;
uniform float cloud_distance;
uniform float cloud_speed;

void sky() {
	float v_angle = clamp(EYEDIR.y, -1.0, 1.0);
	vec3 sky = mix(sky_top_color.rgb, sky_horizon_color.rgb, clamp(pow(1.0 - v_angle, inv_sky_curve), 0.0, 1.0));

	if (LIGHT0_ENABLED) {
		float sun_angle = dot(LIGHT0_DIRECTION, EYEDIR);
		float sun_size = cos(LIGHT0_SIZE);
		if (sun_angle > sun_size) {
			sky = LIGHT0_COLOR * LIGHT0_ENERGY;
		} else if (sun_angle > sun_angle_max) {
			float c2 = (sun_size - sun_angle) / (sun_size - sun_angle_max);
			sky = mix(sky, LIGHT0_COLOR * LIGHT0_ENERGY, clamp(pow(1.0 - c2, inv_sun_curve), 0.0, 1.0));
		}
	}

	if (LIGHT1_ENABLED) {
		float sun_angle = dot(LIGHT1_DIRECTION, EYEDIR);
		float sun_size = cos(LIGHT1_SIZE);
		if (sun_angle > sun_size) {
			sky = LIGHT1_COLOR * LIGHT1_ENERGY;
		} else if (sun_angle > sun_angle_max) {
			float c2 = (sun_size - sun_angle) / (sun_size - sun_angle_max);
			sky = mix(sky, LIGHT1_COLOR * LIGHT1_ENERGY, clamp(pow(1.0 - c2, inv_sun_curve), 0.0, 1.0));
		}
	}

	if (LIGHT2_ENABLED) {
		float sun_angle = dot(LIGHT2_DIRECTION, EYEDIR);
		float sun_size = cos(LIGHT2_SIZE);
		if (sun_angle > sun_size) {
			sky = LIGHT2_COLOR * LIGHT2_ENERGY;
		} else if (sun_angle > sun_angle_max) {
			float c2 = (sun_size - sun_angle) / (sun_size - sun_angle_max);
			sky = mix(sky, LIGHT2_COLOR * LIGHT2_ENERGY, clamp(pow(1.0 - c2, inv_sun_curve), 0.0, 1.0));
		}
	}

	if (LIGHT3_ENABLED) {
		float sun_angle = dot(LIGHT3_DIRECTION, EYEDIR);
		float sun_size = cos(LIGHT3_SIZE);
		if (sun_angle > sun_size) {
			sky = LIGHT3_COLOR * LIGHT3_ENERGY;
		} else if (sun_angle > sun_angle_max) {
			float c2 = (sun_size - sun_angle) / (sun_size - sun_angle_max);
			sky = mix(sky, LIGHT3_COLOR * LIGHT3_ENERGY, clamp(pow(1.0 - c2, inv_sun_curve), 0.0, 1.0));
		}
	}

	
	
	vec3 ground = mix(ground_bottom_color.rgb, ground_horizon_color.rgb, clamp(pow(1.0 + v_angle, inv_ground_curve), 0.0, 1.0));
	
	vec2 sky_uv = EYEDIR.xz / EYEDIR.y;
	vec3 clouds = texture(cloud_texture, (sky_uv * cloud_scale) + (TIME * cloud_direction * cloud_speed)).rgb - texture(cloud_texture2, (sky_uv * cloud_scale) + (TIME * cloud_direction2 * cloud_speed)).rgb;
	clouds = clouds - smoothstep(0.0, EYEDIR.y, cloud_distance);
	clouds = clamp(clouds, 0.0, 1.0);
	sky += clouds;

	COLOR = mix(ground, sky, step(0.0, EYEDIR.y)) * exposure;
}
